X:3269
T:Killarney Wonder
T:Macroom Reel
O:england
M:C|
L:1/8
S:Michael Coleman, Daly and Creagh
R:schottise
K:G
DG~G2 A2ge|dBcA BGEG|DG~G2 A2ge|dBAc BGGE|\
DG~G2 A2ge|dBcA BGEG|DG~G2 A2ge|dBAc BGG2||
gdeg d2Bd|cABG AEE2|gdeg dgbg|agab g2ga|\
bgeg d2Bd|cABG AGEG|DG~G2 A2ge|dBAc BGG2||


